src/assets/images/logos/Chilis_logo.svg

<svg xmlns="http://www.w3.org/2000/svg" width="296" height="154" fill="none"><path d="M256.7 91.4l-9.2-4.2c-6.4-2.8-14.5-6.3-14.5-15.5 0-4.8 3.5-11 11-11s10.7 5.5 12.5 9c2 3.5 4.4 7.5 10.1 7.5 5.2 0 8.8-3.9 8.8-9 0-7.4-8.3-19.7-30.5-19.7-23.4 0-32 14-32 27 0 17.1 14.7 24.3 20.2 26.9 4.6 2.2 15.4 7 18.3 9.5 2.5 2.1 6 5.1 6 11.3 0 6.8-5 11.4-11.6 11.4-7.4 0-10.7-4.8-15.1-11-2.6-3.5-5.2-7.2-10.3-7.2-5.3 0-9.4 4.4-9.4 9.9 0 7.4 8.8 22.3 34.2 22.3 27.4 0 33.1-18.6 33.1-28.9.1-17.7-13.1-24.3-21.6-28.3zm-50.6-59c.4-3.7-1.1-6.3-2.6-8.7-3.5-5-5.4-7.9-4.9-12.7.7-7 6.8-11.7 14.2-10.9 8.3.9 15.5 8.1 14.1 21.6-2.2 20.6-22.1 36-29 35.2-2.8-.3-4.5-2.7-4.3-5.3.2-2 1-3 2.7-4.6 5.5-5.4 9.3-9.6 9.8-14.6z" fill="#5E9732"/><path d="M196.3 71.6c-7.8-7.4-10.4-6-15.5-21.5-2.5-7.6-7.1-16.6-14.9-19.3-13.5-4.6-27.7 5.6-37 14.6C119 55 114.8 66 89.2 83.2 82 88 73.4 91.2 65 92.8c-10.6 2-19.5-1.2-29.9-2C15.4 89.1 0 96.6 0 108.4s30.1 32 55.4 36.6c32.4 5.9 58.4 4.2 75.7-1 31.2-9.5 48.3-21.4 62.8-36 9.6-9.6 15-24.4 2.4-36.4z" fill="#EE3124"/><path d="M97.4 104c-6.6 2.7-17.6 3-18.5-.9-.6-2.8 5-1.4 11.2-5 8.1-4.6 10.6-7 12.8-4.9 2.8 2.7 2.8 7.4-5.5 10.8zm46.8-31.1c-22.1 17-31.8 24.4-34.8 16.8-1.6-4.2 5.4-6.9 11.5-12.8 7.7-7.5 16.8-19.2 25.3-26.1 9.9-8 16.1-5.7 18.3-.9 3.3 7.1-8 13.5-20.3 23z" fill="#fff"/><path d="M288.8 143.4c0 2.9-2.4 5.3-5.4 5.3s-5.4-2.3-5.4-5.3c0-2.9 2.4-5.2 5.4-5.2 3-.1 5.4 2.2 5.4 5.2zm-9.5 0c0 2.3 1.8 4.2 4.1 4.2s4-1.9 4-4.2-1.7-4.2-4.1-4.2c-2.2 0-4 1.9-4 4.2zm3.3 2.7h-1.2v-5.2c.5-.1 1.2-.2 2-.2 1 0 1.4.2 1.8.4.3.2.5.6.5 1.1 0 .6-.5 1.1-1.1 1.2v.1c.5.2.8.6.9 1.3.2.8.3 1.1.4 1.3h-1.3c-.2-.2-.3-.6-.4-1.3-.1-.5-.4-.8-1.1-.8h-.6l.1 2.1zm0-2.9h.6c.7 0 1.2-.2 1.2-.8 0-.5-.4-.8-1.1-.8-.3 0-.5 0-.7.1v1.5z" fill="#5E9732"/></svg>

<svg width="296" height="154" viewBox="0 0 296 154" fill="none" xmlns="http://www.w3.org/2000/svg">
<path d="M256.7 91.4L247.5 87.2C241.1 84.4 233 80.9 233 71.7C233 66.9 236.5 60.7 244 60.7C251.5 60.7 254.7 66.2 256.5 69.7C258.5 73.2 260.9 77.2 266.6 77.2C271.8 77.2 275.4 73.3 275.4 68.2C275.4 60.8 267.1 48.5 244.9 48.5C221.5 48.5 212.9 62.5 212.9 75.5C212.9 92.6 227.6 99.8 233.1 102.4C237.7 104.6 248.5 109.4 251.4 111.9C253.9 114 257.4 117 257.4 123.2C257.4 130 252.4 134.6 245.8 134.6C238.4 134.6 235.1 129.8 230.7 123.6C228.1 120.1 225.5 116.4 220.4 116.4C215.1 116.4 211 120.8 211 126.3C211 133.7 219.8 148.6 245.2 148.6C272.6 148.6 278.3 130 278.3 119.7C278.4 102 265.2 95.4 256.7 91.4V91.4ZM206.1 32.4C206.5 28.7 205 26.1 203.5 23.7C200 18.7 198.1 15.8 198.6 11C199.3 3.99999 205.4 -0.700011 212.8 0.0999886C221.1 0.999989 228.3 8.19999 226.9 21.7C224.7 42.3 204.8 57.7 197.9 56.9C195.1 56.6 193.4 54.2 193.6 51.6C193.8 49.6 194.6 48.6 196.3 47C201.8 41.6 205.6 37.4 206.1 32.4V32.4Z" fill="#5E9732"/>
<path d="M196.3 71.6C188.5 64.2 185.9 65.6 180.8 50.1C178.3 42.5 173.7 33.5 165.9 30.8C152.4 26.2 138.2 36.4 128.9 45.4C119 55 114.8 66 89.2 83.2C82 88 73.4 91.2 65 92.8C54.4 94.8 45.5 91.6 35.1 90.8C15.4 89.1 0 96.6 0 108.4C0 120.2 30.1 140.4 55.4 145C87.8 150.9 113.8 149.2 131.1 144C162.3 134.5 179.4 122.6 193.9 108C203.5 98.4 208.9 83.6 196.3 71.6V71.6Z" fill="#EE3124"/>
<path d="M97.4 104C90.8 106.7 79.8 107 78.9 103.1C78.3 100.3 83.9 101.7 90.1 98.1C98.2 93.5 100.7 91.1 102.9 93.2C105.7 95.9 105.7 100.6 97.4 104V104ZM144.2 72.9C122.1 89.9 112.4 97.3 109.4 89.7C107.8 85.5 114.8 82.8 120.9 76.9C128.6 69.4 137.7 57.7 146.2 50.8C156.1 42.8 162.3 45.1 164.5 49.9C167.8 57 156.5 63.4 144.2 72.9Z" fill="white"/>
<path d="M288.8 143.4C288.8 146.3 286.4 148.7 283.4 148.7C280.4 148.7 278 146.4 278 143.4C278 140.5 280.4 138.2 283.4 138.2C286.4 138.1 288.8 140.4 288.8 143.4ZM279.3 143.4C279.3 145.7 281.1 147.6 283.4 147.6C285.7 147.6 287.4 145.7 287.4 143.4C287.4 141.1 285.7 139.2 283.3 139.2C281.1 139.2 279.3 141.1 279.3 143.4ZM282.6 146.1H281.4V140.9C281.9 140.8 282.6 140.7 283.4 140.7C284.4 140.7 284.8 140.9 285.2 141.1C285.5 141.3 285.7 141.7 285.7 142.2C285.7 142.8 285.2 143.3 284.6 143.4V143.5C285.1 143.7 285.4 144.1 285.5 144.8C285.7 145.6 285.8 145.9 285.9 146.1H284.6C284.4 145.9 284.3 145.5 284.2 144.8C284.1 144.3 283.8 144 283.1 144H282.5L282.6 146.1V146.1ZM282.6 143.2H283.2C283.9 143.2 284.4 143 284.4 142.4C284.4 141.9 284 141.6 283.3 141.6C283 141.6 282.8 141.6 282.6 141.7V143.2V143.2Z" fill="#5E9732"/>
</svg>
